packages/ffe-icons/icons/open/300/sm/google_wifi.svg

<svg xmlns="http://www.w3.org/2000/svg" height="20" viewBox="0 -960 960 960" width="20"><path d="M196.769-531.999h565.077l-9-152.462q-.385-5-3.846-8.27-3.462-3.269-8.463-3.269H219.463q-5.001 0-8.463 3.269-3.461 3.27-3.846 8.27l-10.385 152.462Zm-1.383 223.076H764.23q5.385 0 9.423-3.846 4.039-3.847 3.654-9.232L765.263-480h-571.34l-11.23 157.999q-.385 5.385 3.461 9.232 3.847 3.846 9.232 3.846Zm41.461 96.922-15.287-44.923h-26.559q-28.123 0-47.215-21.192-19.092-21.193-17.092-47.731l24.461-362.46q2-23.923 20.334-41.807 18.333-17.885 43.974-17.885h521.074q25.641 0 43.974 17.885 18.334 17.884 20.334 41.807l24.461 362.46q2 26.538-17.092 47.731-19.092 21.192-47.215 21.192H738.44l-15.287 44.923H236.847Z"/></svg>

<svg xmlns="http://www.w3.org/2000/svg" height="20" viewBox="0 -960 960 960" width="20"><path d="M196.77-532h565.08l-9-152.46q-.39-5-3.85-8.27-3.46-3.27-8.46-3.27H219.46q-5 0-8.46 3.27-3.46 3.27-3.85 8.27L196.77-532Zm-1.38 223.08h568.84q5.38 0 9.42-3.85t3.66-9.23l-12.05-158H193.92l-11.23 158q-.38 5.38 3.46 9.23 3.85 3.85 9.24 3.85ZM236.85-212l-15.29-44.92H195q-28.12 0-47.21-21.2-19.1-21.19-17.1-47.73l24.47-362.46q2-23.92 20.33-41.8Q193.82-748 219.46-748h521.08q25.64 0 43.97 17.89 18.33 17.88 20.33 41.8l24.47 362.46q2 26.54-17.1 47.73-19.09 21.2-47.21 21.2h-26.56L723.15-212h-486.3Z"/></svg>
